!!!COM: Mendelssohn, Felix
!!!CDT: 1809/02/03-1847/11/04
!!!OPR: Sechs vierstimmige Lieder
!!!OTL: Mailied
!!!OPS: Op. 41
!!!ONM: Nr. 5
!!!OMD: Allegro
**kern	**text	**text	**dynam	**kern	**text	**text	**dynam	**kern	**text	**text	**dynam	**kern	**text	**text	**dynam
*part4	*part4	*part4	*part4	*part3	*part3	*part3	*part3	*part2	*part2	*part2	*part2	*part1	*part1	*part1	*part1
*staff4	*staff4	*staff4	*	*staff3	*staff3	*staff3	*	*staff2	*staff2	*staff2	*	*staff1	*staff1	*staff1	*
*Ivox	*	*	*	*Ivox	*	*	*	*Ivox	*	*	*	*Ivox	*	*	*
*I"Bass	*	*	*	*I"Tenor	*	*	*	*I"Alt	*	*	*	*I"Sopran	*	*	*
*clefF4	*	*	*	*clefGv2	*	*	*	*clefG2	*	*	*	*clefG2	*	*	*
*k[b-e-]	*	*	*	*k[b-e-]	*	*	*	*k[b-e-]	*	*	*	*k[b-e-]	*	*	*
*B-:	*	*	*	*B-:	*	*	*	*B-:	*	*	*	*B-:	*	*	*
*M4/4	*	*	*	*M4/4	*	*	*	*M4/4	*	*	*	*M4/4	*	*	*
*met(c)	*	*	*	*met(c)	*	*	*	*met(c)	*	*	*	*met(c)	*	*	*
*MM126	*	*	*	*MM126	*	*	*	*MM126	*	*	*	*MM126	*	*	*
=	=	=	=	=	=	=	=	=	=	=	=	=	=	=	=
8B-	1.Der	2.Pflückt	f	8B-	1.Der	2.Pflückt	f	8d	1.Der	2.Pflückt	f	8f	1.Der	2.Pflückt	f
4B-	Schnee	ei-	.	(8B-L	Schnee	ei-	.	4d	Schnee	ei-	.	(8fL	Schnee	ei-	.
.	.	.	.	8dJ)	.	.	.	.	.	.	.	8b-J)	.	.	.
4B-	zer-	-nen	.	(8dL	zer-	-nen	.	4f	zer-	-nen	.	(8b-L	zer-	-nen	.
.	.	.	.	8fJ)	.	.	.	.	.	.	.	8ddJ)	.	.	.
=1	=1	=1	=1	=1	=1	=1	=1	=1	=1	=1	=1	=1	=1	=1	=1
4.B-	-rinnt,	Kranz	.	4.f	-rinnt,	Kranz	.	4.b-	-rinnt,	Kranz	.	4.dd	-rinnt,	Kranz	.
8B-	der	und	.	8f	der	und	.	8b-	der	und	.	8dd	der	und	.
4.F	Mai-	hal-	.	(4g	Mai-	hal-	.	4.a	Mai-	hal-	.	(4ee-	Mai-	hal-	.
.	.	.	.	8.f)	.	.	.	.	.	.	.	8.dd)	.	.	.
8F	-be-	-tet	.	.	.	.	.	8a	-be-	-tet	.	.	.	.	.
.	.	.	.	16e-	-be-	-tet	.	.	.	.	.	16cc	-be-	-tet	.
=2	=2	=2	=2	=2	=2	=2	=2	=2	=2	=2	=2	=2	=2	=2	=2
4.B-	-ginnt,	Tanz	.	4.d	-ginnt,	Tanz	.	4.b-	-ginnt,	Tanz	.	4.b-	-ginnt,	Tanz	.
8B-	und	auf	p	8d	und	auf	p	8f	und	auf	p	8b-	und	auf	p
4G	Blü-	grü-	.	4B-	Blü-	grü-	.	(8fL	Blü-	grü-	.	4b-	Blü-	grü-	.
.	.	.	.	.	.	.	.	8enJ)	.	.	.	.	.	.	.
4G	-then	-nen	.	4B-	-then	-nen	.	(8dL	-then	-nen	.	4b-	-then	-nen	.
.	.	.	.	.	.	.	.	8eJ)	.	.	.	.	.	.	.
=3	=3	=3	=3	=3	=3	=3	=3	=3	=3	=3	=3	=3	=3	=3	=3
4F	kei-	Au-	.	(8.B-L	kei-	Au-	.	4f	kei-	Au-	.	(8.dd^L	kei-	Au-	.
.	.	.	.	16cJk)	.	.	.	.	.	.	.	16ccJk)	.	.	.
8F	-men	-en,	.	8d	-men	-en,	.	8f	-men	-en,	.	8b-	-men	-en,	.
8F	auf	ihr	.	8d	auf	ihr	.	8f	auf	ihr	.	8b-	auf	ihr	.
4G	Gar-	schö-	.	4B-	Gar-	schö-	.	(8fL	Gar-	schö-	.	4b-	Gar-	schö-	.
.	.	.	.	.	.	.	.	8enJ)	.	.	.	.	.	.	.
4G	-ten-	-nen	.	4B-	-ten-	-nen	.	(8dL	-ten-	-nen	.	4b-	-ten-	-nen	.
.	.	.	.	.	.	.	.	8eJ)	.	.	.	.	.	.	.
=4	=4	=4	=4	=4	=4	=4	=4	=4	=4	=4	=4	=4	=4	=4	=4
4F	-baü-	Frau-	.	(8.B-L	-baü-	Frau-	.	4f	-baü-	Frau-	.	(8.dd^L	-baü-	Frau-	.
.	.	.	.	16cJk)	.	.	.	.	.	.	.	16ccJk)	.	.	.
8F	-men,	-en,	.	8d	-men,	-en,	.	8f	-men,	-en,	.	8b-	-men,	-en,	.
8F	der	pflück	<	8d	der	pflück	<	8f	der	pflück	<	8b-	der	pflück	<
4G	Schnee	ei-	.	4B-	Schnee	ei-	.	(8fL	Schnee	ei-	.	4b-	Schnee	ei-	.
.	.	.	.	.	.	.	.	8aJ)	.	.	.	.	.	.	.
4G	zer-	-nen	.	4B-	zer-	-nen	.	(8gL	zer-	-nen	.	4b-	zer-	-nen	.
.	.	.	.	.	.	.	.	8fJ)	.	.	.	.	.	.	.
=5	=5	=5	=5	=5	=5	=5	=5	=5	=5	=5	=5	=5	=5	=5	=5
*F:	*	*	*	*F:	*	*	*	*F:	*	*	*	*F:	*	*	*
4.C	-rinnt-	Kranz	sf	4.B-	-rinnt-	Kranz	sf	4.en	-rinnt-	Kranz	sf	(4gg	-rinnt,	Kranz	sf
.	.	.	.	.	.	.	.	.	.	.	.	8een)	.	.	.
8D	-der	und	.	8B-	-der	und	.	8f	-der	und	.	8dd	-der	und	.
4En	Mai	hal-	.	4G	Mai	hal-	.	4g	Mai	hal-	.	4.cc	Mai	hal-	.
4C	be-	-tet	.	4c	.	.	.	4e	be-	-tet	.	.	.	.	.
.	.	.	.	.	.	.	.	.	.	.	.	8b-	be-	-tet	.
=6	=6	=6	=6	=6	=6	=6	=6	=6	=6	=6	=6	=6	=6	=6	=6
4D	-ginnt,	Tanz	.	4F	-ginnt,	Tanz	.	4f	-ginnt,	Tanz	.	4a	-ginnt,	Tanz	.
4r	.	.	.	4r	.	.	.	4r	.	.	.	8r	.	.	.
.	.	.	.	.	.	.	.	.	.	.	.	8a	der	auf	p
[2BB-	ja	ja	p	[2G	ja	ja	p	[2f	ja	ja	p	(8ddL	Schnee	grü-	.
.	.	.	.	.	.	.	.	.	.	.	.	8b-J)	.	.	.
.	.	.	.	.	.	.	.	.	.	.	.	(8aL	zer-	-nen	.
.	.	.	.	.	.	.	.	.	.	.	.	8gJ)	.	.	.
=7	=7	=7	=7	=7	=7	=7	=7	=7	=7	=7	=7	=7	=7	=7	=7
4BB-]	.	.	.	4G]	.	.	.	4f]	.	.	.	4g	-rinnt,	Au’n	.
4BB-	der	und	.	4G	der	und	.	4f	der	und	.	8r	.	.	.
.	.	.	.	.	.	.	.	.	.	.	.	8g	der	ihr	.
4C	Mai	hal-	.	4G	Mai	hal-	.	4en	Mai	hal-	.	(8b-L	Mai	schö-	.
.	.	.	.	.	.	.	.	.	.	.	.	8gJ)	.	.	.
4C	be-	-tet	.	4B-	be-	-tet	.	4c	be-	-tet	.	(8fL	be-	-nen	.
.	.	.	.	.	.	.	.	.	.	.	.	8enJ)	.	.	.
=8	=8	=8	=8	=8	=8	=8	=8	=8	=8	=8	=8	=8	=8	=8	=8
4F	-ginnt.	Tanz.	.	4A	-ginnt.	Tanz.	.	4c	-ginnt.	Tanz.	.	4f	-ginnt.	Frau’n	.
4r	.	.	.	4r	.	.	.	4r	.	.	.	8r	.	.	.
*B-:	*	*	*	*B-:	*	*	*	*B-:	*	*	*	*B-:	*	*	*
.	.	.	.	.	.	.	.	.	.	.	.	8f	Und	wo	f
2r	.	.	.	2r	.	.	.	2r	.	.	.	(8fL	Vö-	grü-	.
.	.	.	.	.	.	.	.	.	.	.	.	8aJ)	.	.	.
.	.	.	.	.	.	.	.	.	.	.	.	(8aL	-gel	-ne	.
.	.	.	.	.	.	.	.	.	.	.	.	8ccJ)	.	.	.
=9	=9	=9	=9	=9	=9	=9	=9	=9	=9	=9	=9	=9	=9	=9	=9
1r	.	.	.	1r	.	.	.	1r	.	.	.	4.ee-X	schall	Mai’n	.
.	.	.	.	.	.	.	.	.	.	.	.	8dd	tönt	uns	.
.	.	.	.	.	.	.	.	.	.	.	.	4cc	ü-	Küh-	.
.	.	.	.	.	.	.	.	.	.	.	.	4b-	-ber-	-lung	.
=10	=10	=10	=10	=10	=10	=10	=10	=10	=10	=10	=10	=10	=10	=10	=10
4r	.	.	.	4r	.	.	.	4r	.	.	.	[1ff	-all	streu’n	.
8r	.	.	.	8r	.	.	.	8r	.	.	.	.	.	.	.
8F	und	wo	f	8F	und	wo	f	8a	und	wo	f	.	.	.	.
4F	Vö-	grü-	.	(8FL	Vö-	grü-	.	4a	Vö-	grü-	.	.	.	.	.
.	.	.	.	8AJ)	.	.	.	.	.	.	.	.	.	.	.
4F	-gel-	-ne	.	(8AL	-gel-	-ne	.	4cc	-gel-	-ne	.	.	.	.	.
.	.	.	.	8cJ)	.	.	.	.	.	.	.	.	.	.	.
=11	=11	=11	=11	=11	=11	=11	=11	=11	=11	=11	=11	=11	=11	=11	=11
4.F	-schall	Mai’n	.	4.e-	-schall	Mai’n	.	4.f	-schall	Mai’n	.	2.ff]	.	.	.
8G	tönt	uns	.	8d	tönt	uns	.	8f	tönt	uns	.	.	.	.	.
4A	ü-	Küh-	.	4c	ü-	Küh-	.	4e-	ü-	Küh-	.	.	.	.	.
4B-	-ber-	-lung	.	4B-	-ber-	-lung	.	4d	-ber-	-lung	.	4r	.	.	.
=12	=12	=12	=12	=12	=12	=12	=12	=12	=12	=12	=12	=12	=12	=12	=12
[1E-	.	.	.	[1B-	-all	streu’n	.	[1g	-all	streu’n	.	4r	.	.	.
.	.	.	.	.	.	.	.	.	.	.	.	4ff	und	wo	.
.	.	.	.	.	.	.	.	.	.	.	.	(8ffL	Vo-	grü-	.
.	.	.	.	.	.	.	.	.	.	.	.	8ee-J)	.	.	.
.	.	.	.	.	.	.	.	.	.	.	.	(8ee-L	-gel-	-ne	.
.	.	.	.	.	.	.	.	.	.	.	.	8ddJ)	.	.	.
=13	=13	=13	=13	=13	=13	=13	=13	=13	=13	=13	=13	=13	=13	=13	=13
4E-]	.	.	.	4B-]	.	.	.	4g]	.	.	.	(8ddL	-schall	Mai’n	.
.	.	.	.	.	.	.	.	.	.	.	.	8ccJ)	.	.	.
4E-	tönt	uns	.	4B-	tönt	uns	.	4c	tönt	uns	.	(8ccL	tönt	uns	.
.	.	.	.	.	.	.	.	.	.	.	.	8b-J)	.	.	.
.	.	.	.	.	.	.	.	.	.	.	.	8qqcc/	.	.	.
4E-	ü-	Küh-	.	4B-	ü-	Küh-	.	4c	ü-	Küh-	.	(8b-L	ü-	Küh-	.
.	.	.	.	.	.	.	.	.	.	.	.	8aJ)	.	.	.
4En	-ber-	-lung	.	4B-	-ber-	-lung	.	4c#X	-ber-	-lung	.	(8b-L	-ber-	-lung	.
.	.	.	.	.	.	.	.	.	.	.	.	8gJ)	.	.	.
=14	=14	=14	=14	=14	=14	=14	=14	=14	=14	=14	=14	=14	=14	=14	=14
[1F	-all	streu’n	.	4B-	-all	streu’n	.	4d	-all	streu’n	.	4f	-all	streu’n,	.
.	.	.	.	8r	.	.	.	8r	.	.	.	8r	.	.	.
.	.	.	.	8B-	und	wo	f	8d	und	wo	f	8f	und	wo	f
.	.	.	.	(8B-L	Vo-	grü-	.	(8dL	Vo-	grü-	.	(8fL	Vo-	grü-	.
.	.	.	.	8dJ)	.	.	.	8fJ)	.	.	.	8b-J)	.	.	.
.	.	.	.	(8dL	-gel-	-ne	.	(8fL	-gel-	-ne	.	(8b-L	-gel-	-ne	.
.	.	.	.	8fJ)	.	.	.	8b-J)	.	.	.	8ddJ)	.	.	.
=15	=15	=15	=15	=15	=15	=15	=15	=15	=15	=15	=15	=15	=15	=15	=15
4F]	.	.	.	(4f	-schall	Mai’n	.	4.b-	-schall	Mai’n	.	(4dd	-schall	Mai’n	.
8r	.	.	.	8.e-)	.	.	.	.	.	.	.	8.cc)	.	.	.
8F	tönt	uns	.	.	.	.	.	8f	tönt	uns	.	.	.	.	.
.	.	.	.	16d	tönt	uns	.	.	.	.	.	16b-	tönt	uns	.
4F	ü-	Küh-	.	(4f	ü-	Küh-	.	4b-	ü-	Küh-	.	(4dd	ü-	Küh-	.
4F	-ber-	-lung	.	8.e-)	.	.	.	4a	-ber-	-lung	.	8.cc)	.	.	.
.	.	.	.	16d	-ber-	-lung	.	.	.	.	.	16b-	-ber-	-lung	.
=16	=16	=16	=16	=16	=16	=16	=16	=16	=16	=16	=16	=16	=16	=16	=16
[1BB-	-all	streu’n	.	4d	-all	streu’n,	.	4b-	-all	streu’n,	.	[1b-	-all	streu’n	.
.	.	.	.	8r	.	.	.	8r	.	.	.	.	.	.	.
.	.	.	.	8d	tönt	uns	p	8f	tönt	uns	p	.	.	.	.
.	.	.	.	(4f	ü-	Küh-	.	(4a	ü-	Küh-	.	.	.	.	.
.	.	.	.	8.e-)	.	.	.	8.g)	.	.	.	.	.	.	.
.	.	.	.	16d	-ber-	-lung	.	16f	-ber-	-lung	.	.	.	.	.
=17	=17	=17	=17	=17	=17	=17	=17	=17	=17	=17	=17	=17	=17	=17	=17
4BB-]	.	.	.	4d	-all,	streu’n,	.	4f	-all,	streu’n,	.	4b-]	.	.	.
8r	.	.	.	8r	.	.	.	8r	.	.	.	8r	.	.	.
8B-	tönt	uns	f	8B-	tönt	uns	f	8d	tönt	uns	f	8b-	tönt	uns	f
!LO:TX:a:i:t=ritard.	!	!	!	!LO:TX:a:i:t=ritard.	!	!	!	!LO:TX:a:i:t=ritard.	!	!	!	!LO:TX:a:i:t=ritard.	!	!	!
4F	ü-	Küh-	.	4B-	ü-	Küh-	.	(4f	ü-	Küh-	.	(4dd	ü-	Küh-	.
4F	-ber-	-lung	.	4A	-ber-	-lung	.	8.e-)	.	.	.	8.cc)	.	.	.
.	.	.	.	.	.	.	.	16d	-ber-	-lung	.	16b-	-ber-	-lung	.
=18	=18	=18	=18	=18	=18	=18	=18	=18	=18	=18	=18	=18	=18	=18	=18
4.BB-;	-all.	streu’n.	.	4.B-;	-all.	streu’n.	.	4.d;	-all.	streu’n.	.	4.b-;	-all.	streu’n.	.
=:|!	=:|!	=:|!	=:|!	=:|!	=:|!	=:|!	=:|!	=:|!	=:|!	=:|!	=:|!	=:|!	=:|!	=:|!	=:|!
*d:	*	*	*	*d:	*	*	*	*d:	*	*	*	*d:	*	*	*
8B-	3.Wer	.	pp	8d	3.Wer	.	pp	8f	3.Wer	.	pp	8r	.	.	.
4B-	weiss,	.	.	4d	weiss,	.	.	4f	weiss,	.	.	4r	.	.	.
4B-	wie	.	.	4d	wie	.	.	4f	wie	.	.	4r	.	.	.
=19	=19	=19	=19	=19	=19	=19	=19	=19	=19	=19	=19	=19	=19	=19	=19
4B-	bald	.	.	4d	bald	.	.	4f#X	bald	.	.	1r	.	.	.
4B-	die	.	.	4d	die	.	.	4f#	die	.	.	.	.	.	.
4B-	Glo-	.	.	4d	Glo-	.	.	4f#	Glo-	.	.	.	.	.	.
4B-	-cke	.	.	4d	-cke	.	.	4f#	-cke	.	.	.	.	.	.
=20	=20	=20	=20	=20	=20	=20	=20	=20	=20	=20	=20	=20	=20	=20	=20
[1B-	schallt,	.	<	[1d	schallt,	.	<	(1g	schallt,	.	<	4r	.	.	.
.	.	.	.	.	.	.	.	.	.	.	.	8r	.	.	.
.	.	.	.	.	.	.	.	.	.	.	.	8dd	3.Wer	.	pp
.	.	.	.	.	.	.	.	.	.	.	.	4dd	weiss,	.	.
.	.	.	.	.	.	.	.	.	.	.	.	4dd	wie	.	.
=21	=21	=21	=21	=21	=21	=21	=21	=21	=21	=21	=21	=21	=21	=21	=21
(1B-]	.	.	[[	1d]	.	.	[[	1g#X)	.	.	[[	4dd	bald	.	<
.	.	.	.	.	.	.	.	.	.	.	.	4dd	die	.	.
.	.	.	.	.	.	.	.	.	.	.	.	4een	Glo-	.	.
.	.	.	.	.	.	.	.	.	.	.	.	4dd	-cke	.	[[
=22	=22	=22	=22	=22	=22	=22	=22	=22	=22	=22	=22	=22	=22	=22	=22
2A)	.	.	.	4r	.	.	.	4r	.	.	.	2cc#X	schallt,	.	.
.	.	.	.	4A	da	.	.	4en	da	.	.	.	.	.	.
2r	.	.	.	4c#X	wir	.	.	4a	wir	.	.	2r	.	.	.
.	.	.	.	4en	des	.	.	4g	des	.	.	.	.	.	.
=23	=23	=23	=23	=23	=23	=23	=23	=23	=23	=23	=23	=23	=23	=23	=23
2r	.	.	.	2en	Mai-	.	.	2g	Mai-	.	.	4r	.	.	.
.	.	.	.	.	.	.	.	.	.	.	.	4a	da	.	.
2D	wer	.	<	2d	-en	.	.	2f	-en	.	.	4a	wir	.	.
.	.	.	.	.	.	.	.	.	.	.	.	4dd	des	.	.
=24	=24	=24	=24	=24	=24	=24	=24	=24	=24	=24	=24	=24	=24	=24	=24
1A	weiss	.	[[	4r	.	.	.	4r	.	.	.	2dd	Mai-	.	.
.	.	.	.	4A	uns	.	.	4en	uns	.	.	.	.	.	.
.	.	.	.	4c#X	nicht	.	.	4a	nicht	.	.	2cc#X	-en	.	.
.	.	.	.	4en	mehr	.	.	4g	mehr	.	.	.	.	.	.
=25	=25	=25	=25	=25	=25	=25	=25	=25	=25	=25	=25	=25	=25	=25	=25
2r	.	.	.	2en	freu-	.	.	2g	freu-	.	.	4r	.	.	.
.	.	.	.	.	.	.	.	.	.	.	.	4a	uns	.	.
2D	wie	.	<	2d	-en!	.	.	2f	-en!	.	.	4a	nicht	.	.
.	.	.	.	.	.	.	.	.	.	.	.	4dd	mehr	.	.
=26	=26	=26	=26	=26	=26	=26	=26	=26	=26	=26	=26	=26	=26	=26	=26
4.A	bald	.	.	4r	.	.	.	4r	.	.	.	2cc#X	freu’n!	.	.
.	.	.	.	8r	.	.	.	8r	.	.	.	.	.	.	.
8A	wer	.	[ p	8A	wer	.	p	8a	wer	.	p	.	.	.	.
4.B-	weiss	.	.	4.B-	weiss	.	.	4.b-	weiss	.	.	2r	.	.	.
8A	wie	.	.	8A	wie	.	.	8a	wie	.	.	.	.	.	.
=27	=27	=27	=27	=27	=27	=27	=27	=27	=27	=27	=27	=27	=27	=27	=27
4G	bald	.	.	4G	bald	.	.	4g	bald	.	.	1r	.	.	.
4F	die	.	.	4r	.	.	.	4f	die	.	.	.	.	.	.
4En	Glo-	.	.	2r	.	.	.	4en	Glo-	.	.	.	.	.	.
4D	-cke	.	.	.	.	.	.	4d	-cke	.	.	.	.	.	.
=28	=28	=28	=28	=28	=28	=28	=28	=28	=28	=28	=28	=28	=28	=28	=28
2C#X	schallt,	.	.	2r	.	.	.	2c#X	schallt,	.	.	2r	.	.	.
4r	.	.	.	4r	.	.	.	4r	.	.	.	4r	.	.	.
4C#	wer	.	.	4en	wer	.	.	4g	wer	.	.	4a	wer	.	.
=29	=29	=29	=29	=29	=29	=29	=29	=29	=29	=29	=29	=29	=29	=29	=29
2D	weiss	.	.	2d	weiss	.	.	2f	weiss	.	.	2a	weiss	.	.
4r	.	.	.	4r	.	.	.	4r	.	.	.	4r	.	.	.
4F	wie	.	.	4d	wie	.	.	4f	wie	.	.	4a	wie	.	.
=30	=30	=30	=30	=30	=30	=30	=30	=30	=30	=30	=30	=30	=30	=30	=30
[1A	bald	.	.	[1d	bald	.	.	[1f	bald	.	.	(4a'	bald	.	.
.	.	.	.	.	.	.	.	.	.	.	.	4dd'	die	.	.
.	.	.	.	.	.	.	.	.	.	.	.	4cc'	Glo-	.	.
.	.	.	.	.	.	.	.	.	.	.	.	4b-')	-cke	.	.
=31	=31	=31	=31	=31	=31	=31	=31	=31	=31	=31	=31	=31	=31	=31	=31
1A_	.	.	.	4d]	.	.	.	4f]	.	.	.	[1a	schallt!	.	.
.	.	.	.	(4f'	die	.	.	(4a'	die	.	.	.	.	.	.
.	.	.	.	4en'	Glo-	.	.	4g'	Glo-	.	.	.	.	.	.
.	.	.	.	4d')	-cke	.	.	4f')	-cke	.	.	.	.	.	.
=32	=32	=32	=32	=32	=32	=32	=32	=32	=32	=32	=32	=32	=32	=32	=32
4A]	.	.	.	[1c#X	schallt!	.	.	[1en	schallt!	.	.	1a_	.	.	.
4En	die	.	.	.	.	.	.	.	.	.	.	.	.	.	.
4C#X	Glo-	.	.	.	.	.	.	.	.	.	.	.	.	.	.
4E	-cke	.	.	.	.	.	.	.	.	.	.	.	.	.	.
=33	=33	=33	=33	=33	=33	=33	=33	=33	=33	=33	=33	=33	=33	=33	=33
[1A	schallt!	.	.	1c#_	.	.	.	1e_	.	.	.	4a]	.	.	.
.	.	.	.	.	.	.	.	.	.	.	.	4en	die	.	pp
.	.	.	.	.	.	.	.	.	.	.	.	4c#X	Glo-	.	.
.	.	.	.	.	.	.	.	.	.	.	.	4e	-cke	.	.
=34	=34	=34	=34	=34	=34	=34	=34	=34	=34	=34	=34	=34	=34	=34	=34
4.A;]	.	.	.	4.c#;]	.	.	.	4.e;]	.	.	.	4.a;	schallt!	.	.
=||	=||	=||	=||	=||	=||	=||	=||	=||	=||	=||	=||	=||	=||	=||	=||
*B-:	*	*	*	*B-:	*	*	*	*B-:	*	*	*	*B-:	*	*	*
8d	.	.	f	8d	.	.	f	8f	.	.	f	8f	4.Drum	.	f
4d	.	.	.	4d	.	.	.	4f	.	.	.	(8fL	wer-	.	.
.	.	.	.	.	.	.	.	.	.	.	.	8b-J)	.	.	.
(8dL	.	.	.	4d	.	.	.	4f	.	.	.	(8b-L	-det	.	.
8B-J)	.	.	.	.	.	.	.	.	.	.	.	8ddJ)	.	.	.
=35	=35	=35	=35	=35	=35	=35	=35	=35	=35	=35	=35	=35	=35	=35	=35
2F	froh,	.	.	2f	froh,	.	.	2b-	froh,	.	.	2dd	froh,	.	.
4F	Gott	.	.	4g	Gott	.	.	4a	Gott	.	.	4ee-	Gott	.	.
8.F	will	.	.	8.f	will	.	.	8.a	will	.	.	8.dd	will	.	.
16F	es	.	.	16e-	es	.	.	16a	es	.	.	16cc	es	.	.
=36	=36	=36	=36	=36	=36	=36	=36	=36	=36	=36	=36	=36	=36	=36	=36
4.B-	so,	.	.	4.d	so,	.	.	4.b-	so,	.	.	4.b-	so,	.	.
8B-	der	.	p	8d	der	.	p	8f	der	.	p	8b-	der	.	p
4G	uns	.	.	4B-	uns	.	.	(8fL	uns	.	.	4b-	uns	.	.
.	.	.	.	.	.	.	.	8enJ)	.	.	.	.	.	.	.
4G	diess	.	.	4B-	diess	.	.	(8dL	diess	.	.	4b-	diess	.	.
.	.	.	.	.	.	.	.	8eJ)	.	.	.	.	.	.	.
=37	=37	=37	=37	=37	=37	=37	=37	=37	=37	=37	=37	=37	=37	=37	=37
4F	Le-	.	.	(8.B-L	Le-	.	.	4f	Le-	.	.	(8.dd^L	Le-	.	.
.	.	.	.	16cJk)	.	.	.	.	.	.	.	16ccJk)	.	.	.
8F	-ben	.	.	8d	-ben	.	.	8f	-ben	.	.	8b-	-ben	.	.
8F	zur	.	.	8d	zur	.	.	8f	zur	.	.	8b-	zur	.	.
4G	Lust	.	.	4B-	Lust	.	.	(8fL	Lust	.	.	4b-	Lust	.	.
.	.	.	.	.	.	.	.	8enJ)	.	.	.	.	.	.	.
4G	ge-	.	.	4B-	ge-	.	.	(8dL	ge-	.	.	4b-	ge-	.	.
.	.	.	.	.	.	.	.	8eJ)	.	.	.	.	.	.	.
=38	=38	=38	=38	=38	=38	=38	=38	=38	=38	=38	=38	=38	=38	=38	=38
4F	-ge-	.	.	(8.B-L	-ge-	.	.	4f	-ge-	.	.	(8.dd^L	-ge-	.	.
.	.	.	.	16cJk)	.	.	.	.	.	.	.	16ccJk)	.	.	.
8F	-ben,	.	.	8d	-ben,	.	.	8f	-ben,	.	.	8b-	-ben,	.	.
8F	drum	.	<	8d	drum	.	<	8f	drum	.	<	8b-	drum	.	<
4G	wer-	.	.	4B-	wer-	.	.	(8fL	wer-	.	.	4b-	wer-	.	.
.	.	.	.	.	.	.	.	8aJ)	.	.	.	.	.	.	.
4G	-det	.	.	4B-	-det	.	.	(8gL	-det	.	.	4b-	-det	.	.
.	.	.	.	.	.	.	.	8fJ)	.	.	.	.	.	.	.
=39	=39	=39	=39	=39	=39	=39	=39	=39	=39	=39	=39	=39	=39	=39	=39
*F:	*	*	*	*F:	*	*	*	*F:	*	*	*	*F:	*	*	*
4.C	froh	.	sf	4.B-	froh	.	sf	4.en	froh	.	sf	4gg	froh	.	sf
.	.	.	.	.	.	.	.	.	.	.	.	(8eenL	Gott	.	.
8D	Gott	.	.	8B-	Gott	.	.	8f	Gott	.	.	8ddJ)	.	.	.
4En	will	.	.	4G	will	.	.	4g	will	.	.	4.cc	will	.	.
4C	es	.	.	4c	es	.	.	4e	es	.	.	.	.	.	.
.	.	.	.	.	.	.	.	.	.	.	.	8b-	es	.	.
=40	=40	=40	=40	=40	=40	=40	=40	=40	=40	=40	=40	=40	=40	=40	=40
4D	so,	.	.	4F	so,	.	.	4f	so,	.	.	4a	so,	.	.
4r	.	.	.	4r	.	.	.	4r	.	.	.	8r	.	.	.
.	.	.	.	.	.	.	.	.	.	.	.	8a	drum	.	p
[2BB-	Gott	.	p	[2G	Gott	.	p	[2f	Gott	.	p	(8ddL	wer-	.	.
.	.	.	.	.	.	.	.	.	.	.	.	8b-J)	.	.	.
.	.	.	.	.	.	.	.	.	.	.	.	(8aL	-det	.	.
.	.	.	.	.	.	.	.	.	.	.	.	8gJ)	.	.	.
=41	=41	=41	=41	=41	=41	=41	=41	=41	=41	=41	=41	=41	=41	=41	=41
4BB-]	.	.	.	4G]	.	.	.	4f]	.	.	.	4g	froh,	.	.
4BB-	er	.	.	4G	er	.	.	4f	er	.	.	4r	.	.	.
4C	will	.	.	4G	will	.	.	4en	will	.	.	(8b-L	Gott	.	.
.	.	.	.	.	.	.	.	.	.	.	.	8gJ)	.	.	.
4C	es	.	.	4B-	es	.	.	4c	es	.	.	8f	will	.	.
.	.	.	.	.	.	.	.	.	.	.	.	8en	es	.	.
=42	=42	=42	=42	=42	=42	=42	=42	=42	=42	=42	=42	=42	=42	=42	=42
4F	so.	.	.	4A	so.	.	.	4c	so.	.	.	4f	so.	.	.
4r	.	.	.	4r	.	.	.	4r	.	.	.	8r	.	.	.
*B-:	*	*	*	*B-:	*	*	*	*B-:	*	*	*	*B-:	*	*	*
.	.	.	.	.	.	.	.	.	.	.	.	8f	Ge-	.	f
2r	.	.	.	2r	.	.	.	2r	.	.	.	(8fL	-niesst	.	.
.	.	.	.	.	.	.	.	.	.	.	.	8aJ)	.	.	.
.	.	.	.	.	.	.	.	.	.	.	.	(8aL	der	.	.
.	.	.	.	.	.	.	.	.	.	.	.	8ccJ)	.	.	.
=43	=43	=43	=43	=43	=43	=43	=43	=43	=43	=43	=43	=43	=43	=43	=43
1r	.	.	.	1r	.	.	.	1r	.	.	.	4.ee-X	Zeit,	.	.
.	.	.	.	.	.	.	.	.	.	.	.	8dd	die	.	.
.	.	.	.	.	.	.	.	.	.	.	.	4cc	Gott	.	.
.	.	.	.	.	.	.	.	.	.	.	.	4b-	ver-	.	.
=44	=44	=44	=44	=44	=44	=44	=44	=44	=44	=44	=44	=44	=44	=44	=44
4r	.	.	.	4r	.	.	.	4r	.	.	.	[1ff	-leiht,	.	.
8r	.	.	.	8r	.	.	.	8r	.	.	.	.	.	.	.
8F	Ge-	.	f	8F	Ge-	.	f	8a	Ge-	.	f	.	.	.	.
4F	-niesst	.	.	(8FL	-niesst	.	.	4a	-niesst	.	.	.	.	.	.
.	.	.	.	8AJ)	.	.	.	.	.	.	.	.	.	.	.
4F	der	.	.	(8AL	der	.	.	4cc	der	.	.	.	.	.	.
.	.	.	.	8cJ)	.	.	.	.	.	.	.	.	.	.	.
=45	=45	=45	=45	=45	=45	=45	=45	=45	=45	=45	=45	=45	=45	=45	=45
4.F	Zeit,	.	.	4.e-	Zeit,	.	.	4.f	Zeit,	.	.	2.ff]	.	.	.
8G	die	.	.	8d	die	.	.	8f	die	.	.	.	.	.	.
4A	Gott	.	.	4c	Gott	.	.	4e-	Gott	.	.	.	.	.	.
4B-	ver-	.	.	4B-	ver-	.	.	4d	ver-	.	.	4r	.	.	.
=46	=46	=46	=46	=46	=46	=46	=46	=46	=46	=46	=46	=46	=46	=46	=46
[1E-	-leiht,	.	.	[1B-	-leiht,	.	.	[1g	-leiht,	.	.	4r	.	.	.
.	.	.	.	.	.	.	.	.	.	.	.	4ff	ge-	.	.
.	.	.	.	.	.	.	.	.	.	.	.	(8ffL	-niesst	.	.
.	.	.	.	.	.	.	.	.	.	.	.	8ee-J)	.	.	.
.	.	.	.	.	.	.	.	.	.	.	.	(8ee-L	der	.	.
.	.	.	.	.	.	.	.	.	.	.	.	8ddJ)	.	.	.
=47	=47	=47	=47	=47	=47	=47	=47	=47	=47	=47	=47	=47	=47	=47	=47
4E-]	.	.	.	4B-]	.	.	.	4g]	.	.	.	(8ddL	Zeit,	.	.
.	.	.	.	.	.	.	.	.	.	.	.	8ccJ)	.	.	.
4E-	die	.	.	4B-	die	.	.	4c	die	.	.	(8ccL	die	.	.
.	.	.	.	.	.	.	.	.	.	.	.	8b-J)	.	.	.
.	.	.	.	.	.	.	.	.	.	.	.	8qqcc/	.	.	.
4E-	Gott	.	.	4B-	Gott	.	.	4c	Gott	.	.	(8b-L	Gott	.	.
.	.	.	.	.	.	.	.	.	.	.	.	8aJ)	.	.	.
4En	ver-	.	.	4B-	ver-	.	.	4c#X	ver-	.	.	(8b-L	ver-	.	.
.	.	.	.	.	.	.	.	.	.	.	.	8gJ)	.	.	.
=48	=48	=48	=48	=48	=48	=48	=48	=48	=48	=48	=48	=48	=48	=48	=48
[1F	-leiht,	.	.	4B-	-leiht,	.	.	4d	-leiht,	.	.	4f	-leiht,	.	.
.	.	.	.	8r	.	.	.	8r	.	.	.	8r	.	.	.
.	.	.	.	8B-	ge-	.	f	8d	ge-	.	f	8f	ge-	.	f
.	.	.	.	(8B-L	-niesst	.	.	(8dL	-niesst	.	.	(8fL	-niesst	.	.
.	.	.	.	8dJ)	.	.	.	8fJ)	.	.	.	8b-J)	.	.	.
.	.	.	.	(8dL	die	.	.	(8fL	die	.	.	(8b-L	die	.	.
.	.	.	.	8fJ)	.	.	.	8b-J)	.	.	.	8ddJ)	.	.	.
=49	=49	=49	=49	=49	=49	=49	=49	=49	=49	=49	=49	=49	=49	=49	=49
4F]	.	.	.	(4f	Zeit,	.	.	4.b-	Zeit,	.	.	(4dd	Zeit,	.	.
8r	.	.	.	8.e-)	.	.	.	.	.	.	.	8.cc)	.	.	.
8F	die	.	.	.	.	.	.	8f	die	.	.	.	.	.	.
.	.	.	.	16d	die	.	.	.	.	.	.	16b-	die	.	.
4F	Gott	.	.	(4f	Gott	.	.	4b-	Gott	.	.	(4dd	Gott	.	.
4F	ver-	.	.	8.e-)	.	.	.	4a	ver-	.	.	8.cc)	.	.	.
.	.	.	.	16d	ver-	.	.	.	.	.	.	16b-	ver-	.	.
=50	=50	=50	=50	=50	=50	=50	=50	=50	=50	=50	=50	=50	=50	=50	=50
[1BB-	-leiht,	.	.	4d	-leiht	.	.	4b-	-leiht	.	.	[1b-	-leiht	.	.
.	.	.	.	8r	.	.	.	8r	.	.	.	.	.	.	.
.	.	.	.	8d	die	.	p	8f	die	.	p	.	.	.	.
.	.	.	.	(4f	Gott	.	.	(4a	Gott	.	.	.	.	.	.
.	.	.	.	8.e-)	.	.	.	8.g)	.	.	.	.	.	.	.
.	.	.	.	16d	ver-	.	.	16f	ver-	.	.	.	.	.	.
=51	=51	=51	=51	=51	=51	=51	=51	=51	=51	=51	=51	=51	=51	=51	=51
4BB-]	.	.	.	4d	-leiht	.	.	4f	-leiht	.	.	4b-]	.	.	.
8r	.	.	.	8r	.	.	.	8r	.	.	.	8r	.	.	.
8B-	die	.	f	8B-	die	.	f	8d	die	.	f	8b-	die	.	f
!LO:TX:a:i:t=ritard.	!	!	!	!LO:TX:a:i:t=ritard.	!	!	!	!LO:TX:a:i:t=ritard.	!	!	!	!LO:TX:a:i:t=ritard.	!	!	!
4F	Gott	.	.	4B-	Gott	.	.	(4f	Gott	.	.	(4dd	Gott	.	.
4F	ver-	.	.	4A	ver-	.	.	8.e-)	.	.	.	8.cc)	.	.	.
.	.	.	.	.	.	.	.	16d	ver-	.	.	16b-	ver-	.	.
=52	=52	=52	=52	=52	=52	=52	=52	=52	=52	=52	=52	=52	=52	=52	=52
4.BB-;	-leiht.	.	.	4.B-;	-leiht.	.	.	4.d;	-leiht.	.	.	4.b-;	-leiht.	.	.
==	==	==	==	==	==	==	==	==	==	==	==	==	==	==	==
*-	*-	*-	*-	*-	*-	*-	*-	*-	*-	*-	*-	*-	*-	*-	*-
!!!system-decoration: ([s1,s2,s3,s4])
!!!RDF**kern: i = editorial accidental
!!!AGN: Choral
!!!YOR: https://mdz-nbn-resolving.de/details:bsb11150717
!!!YOO: München, Bayerische Staatsbibliothek
!!!URL-scan: https://www.digitale-sammlungen.de/de/view/bsb11150717?page=13
!!!EED: Wolfgang Drescher
!!!END: 2024/11/22
!!!ENC: Wolfgang Drescher
!!!EEV: 2024/11/22
!!!title: @{OPS} @{ONM}. @{OTL}